X:72
T:Lord of Carnarvans Jig
M:C|
L:1/8
K:GMix
B2 G2 Bc d2 | c2 A2 ABcd | B2 G2 d2 ef | [1 g4 d4 :| [2 g4 d2 ||
ef | gfed g3 B | A2 A2 c2 dc | B2 G2 b3 a | [1 g4 d2 :| [2 g4 d4 ||
%
%
